archdroid-icon-theme/Archdroid-DeepOrangeDark/places/scalable/folder-collection-xfce.svg

<?xml version="1.0" encoding="UTF-8" standalone="no"?>
<svg
   xmlns:dc="http://purl.org/dc/elements/1.1/"
   xmlns:cc="http://creativecommons.org/ns#"
   xmlns:rdf="http://www.w3.org/1999/02/22-rdf-syntax-ns#"
   xmlns:svg="http://www.w3.org/2000/svg"
   xmlns="http://www.w3.org/2000/svg"
   xmlns:sodipodi="http://sodipodi.sourceforge.net/DTD/sodipodi-0.dtd"
   xmlns:inkscape="http://www.inkscape.org/namespaces/inkscape"
   fill="#4CAF50"
   width="48"
   height="48"
   viewBox="0 0 48 48"
   id="svg2"
   version="1.1"
   inkscape:version="0.91 r13725"
   sodipodi:docname="folder-collection.svg">
  <metadata
     id="metadata10">
    <rdf:RDF>
      <cc:Work
         rdf:about="">
        <dc:format>image/svg+xml</dc:format>
        <dc:type
           rdf:resource="http://purl.org/dc/dcmitype/StillImage" />
        <dc:title />
      </cc:Work>
    </rdf:RDF>
  </metadata>
  <defs
     id="defs8" />
  <sodipodi:namedview
     pagecolor="#ffffff"
     bordercolor="#666666"
     borderopacity="1"
     objecttolerance="10"
     gridtolerance="10"
     guidetolerance="10"
     inkscape:pageopacity="0"
     inkscape:pageshadow="2"
     inkscape:window-width="1366"
     inkscape:window-height="713"
     id="namedview6"
     showgrid="false"
     inkscape:zoom="6.179518388275623"
     inkscape:cx="18.46499116598509"
     inkscape:cy="10.76417838998693"
     inkscape:window-x="0"
     inkscape:window-y="30"
     inkscape:window-maximized="1"
     inkscape:current-layer="svg2"
     inkscape:snap-bbox="true"
     inkscape:bbox-nodes="true" />
  <path
     d="m 8,12 -4,0 0,28 c 0,2.21 1.79,4 4,4 l 28,0 0,-4 -28,0 0,-28 z"
     id="path4146" />
  <path
     d="M 16 4 C 13.79 4 12 5.789999999999999 12 8 L 12 32 C 12 34.21 13.79 36 16 36 L 40 36 C 42.21 36 44 34.21 44 32 L 44 8 C 44 5.79 42.21 4 40 4 L 16 4 z M 15.10546875 13.095703125 C 15.187336676715 13.082007746925 17.2294377877525 14.1588878872275 18.6015625 14.53125 C 21.0483178785325 15.1565200945575 23.28182799095503 17.03811878227999 24.361328125 18.119140625 C 24.441370001305 18.21166051244 25.287280650945 17.48476259658002 26.173828125 17.537109375 C 27.38480388856501 17.610455733135 31.132170345925 18.66475126526253 31.6328125 17.947265625 C 31.93639338066251 17.52605666376003 31.91421546079252 17.00854467669253 32.29296875 16.796875 C 32.49687771245001 16.7398109246875 31.53630986213498 14.98160964322001 32.55859375 14.41796875 C 33.28749220532499 14.05367169320501 33.90462670797499 16.093704982015 34.091796875 16.322265625 C 34.1756430229925 16.42452444796001 34.62101049515499 16.44781734814252 34.568359375 16.21484375 C 34.5112952996875 15.96178359734751 33.79154143523497 14.006119107065 34.673828125 13.677734375 C 36.10682118424749 13.1102892100925 35.85139001246252 16.18218517205504 35.888671875 16.26953125 C 35.9679528969675 16.45548405008501 40.8799359873025 16.59742397063496 41.177734375 18.806640625 C 41.34999179701001 20.02248585632501 37.24352796520002 21.59500560380003 36.841796875 21.875 C 36.44021795566749 22.1549943962 36.47427555234249 22.60180310028253 36.630859375 22.87890625 C 36.81087751125249 23.17944371331253 38.00578687760999 24.19459187068751 37.845703125 24.677734375 C 37.73568358779747 24.956815745995 35.50391222784749 23.93342006422251 35.361328125 24.1484375 C 35.03613898115253 24.55914667138249 36.98616043042249 25.58689911120498 36.3125 26.31640625 C 36.04544012753751 26.49109840589001 32.97270803575751 25.02967969197248 32.98046875 25.046875 C 32.897992139815 25.078222198705 28.63903841839499 25.82565682222001 25.365234375 24.8359375 C 25.24988885743499 24.803372934355 23.26488406737002 26.75460735256751 23.0390625 26.6875 C 22.73030780984251 26.57428487458 23.49311446906501 24.9907498494475 23.408203125 24.677734375 C 23.26942329383998 24.50334656084498 22.0007763914 25.38498432876248 21.927734375 24.94140625 C 21.840388297055 24.35843965660747 23.04217483337251 23.68909620758249 22.986328125 23.302734375 C 22.6766604096375 21.10782178217973 23.12406345836753 19.82534132806748 23.884765625 18.75390625 C 24.13843446112251 18.35947936144001 20.90260869669249 15.91727961647997 18.560546875 14.953125 C 16.21863722417501 13.98897038352003 14.9662324062375 13.17194072961749 15.10546875 13.095703125 z M 40.1015625 15.07421875 C 40.23060339563999 15.16826034611499 39.98511673590748 16.99052437791249 39.84375 16.884765625 C 39.679101121365 16.80472374869499 40.0344551474325 14.99630726584 40.1015625 15.07421875 z M 41.32421875 15.310546875 C 41.38478275526501 15.37035002592751 40.50074173590748 17.1545868779125 40.359375 17.048828125 C 40.12427100971249 16.87474465258001 41.1886345070575 15.1983969456525 41.32421875 15.310546875 z M 36.484375 17.228515625 A 0.4241059720516204 0.4828677773475646 0 0 0 36.08984375 17.7109375 A 0.4241059720516204 0.4828677773475646 0 0 0 36.515625 18.193359375 A 0.4241059720516204 0.4828677773475646 0 0 0 36.939453125 17.7109375 A 0.4241059720516204 0.4828677773475646 0 0 0 36.515625 17.228515625 A 0.4241059720516204 0.4828677773475646 0 0 0 36.484375 17.228515625 z M 35.5625 17.521484375 C 35.14083452615748 17.81958710443251 35.79496647131752 19.5064864003275 36.869140625 18.521484375 C 36.02520099384503 18.5462882264025 35.74267030711999 18.29922967879251 35.5625 17.521484375 z M 37.837890625 19.5546875 C 37.36990338802256 19.59264343192713 36.12984148296844 20.35503553965312 36.15234375 20.43359375 C 36.16725649501499 20.54756972975749 38.40951530751746 19.74127885944 37.986328125 19.587890625 C 37.95694012621406 19.55966292907875 37.90474594456821 19.54926522401041 37.837890625 19.5546875 z M 38.173828125 20.08203125 C 37.90022490523499 19.94096885582749 36.78469375955001 21.24169194726 36.927734375 21.328125 C 36.9090173582975 21.3590156861025 38.5732766521875 20.47889287243999 38.173828125 20.08203125 z "
     id="path4195" />
</svg>

<svg xmlns="http://www.w3.org/2000/svg" fill="#BF360C" viewBox="0 0 48 48"><path d="m8 12h-4v28c0 2.21 1.79 4 4 4h28v-4h-28v-28"/><path d="m16 4c-2.21 0-4 1.79-4 4v24c0 2.21 1.79 4 4 4h24c2.21 0 4-1.79 4-4v-24c0-2.21-1.79-4-4-4h-24m-.895 9.1c.082-.014 2.124 1.063 3.496 1.436 2.447.625 4.68 2.507 5.76 3.588.08.093.926-.634 1.813-.582 1.211.073 4.958 1.128 5.459.41.304-.421.281-.939.66-1.15.204-.057-.757-1.815.266-2.379.729-.364 1.346 1.676 1.533 1.904.084.102.529.126.477-.107-.057-.253-.777-2.209.105-2.537 1.433-.567 1.178 2.504 1.215 2.592.079.186 4.991.328 5.289 2.537.172 1.216-3.934 2.788-4.336 3.068-.402.28-.368.727-.211 1 .18.301 1.375 1.316 1.215 1.799-.11.279-2.342-.744-2.484-.529-.325.411 1.625 1.438.951 2.168-.267.175-3.34-1.287-3.332-1.27-.082.031-4.341.779-7.615-.211-.115-.033-2.1 1.919-2.326 1.852-.309-.113.454-1.697.369-2.01-.139-.174-1.407.707-1.48.264-.087-.583 1.114-1.252 1.059-1.639-.31-2.195.138-3.477.898-4.549.254-.394-2.982-2.837-5.324-3.801-2.342-.964-3.594-1.781-3.455-1.857m24.996 1.979c.129.094-.116 1.916-.258 1.811-.165-.08.191-1.888.258-1.811m1.223.236c.061.06-.823 1.844-.965 1.738-.235-.174.829-1.85.965-1.738m-4.839844 1.917969a.424106 .482868 0 0 0 -.394531 .482422 .424106 .482868 0 0 0 .425781 .482422 .424106 .482868 0 0 0 .423828 -.482422 .424106 .482868 0 0 0 -.423828 -.482422 .424106 .482868 0 0 0 -.03125 0m-.922.293c-.422.298.232 1.985 1.307 1-.844.025-1.126-.222-1.307-1m2.275 2.033c-.468.038-1.708.8-1.686.879.015.114 2.257-.692 1.834-.846-.029-.028-.082-.039-.148-.033m.336.527c-.274-.141-1.389 1.16-1.246 1.246-.019.031 1.646-.849 1.246-1.246"/></svg>
